img/svg/female.svg

<?xml version="1.0" encoding="utf-8"?><!DOCTYPE svg PUBLIC "-//W3C//DTD SVG 1.1//EN" "http://www.w3.org/Graphics/SVG/1.1/DTD/svg11.dtd"><svg version="1.1" baseProfile="full" xmlns="http://www.w3.org/2000/svg" xmlns:xlink="http://www.w3.org/1999/xlink" xmlns:ev="http://www.w3.org/2001/xml-events"   height="39px"   width="18px" ><path opacity="0.2" fill="rgb( 0, 0, 0 )" d="M16.6120000000001,19.655 C15.8530000000001,19.8869999999999 15.05,19.461 14.817,18.703 C14.816,18.703 12.6690000000001,11.701 12.6690000000001,11.701 C12.6559999999999,11.671 12.5920000000001,11.548 12.442,11.548 C12.4290000000001,11.548 12.1400000000001,11.548 12.1400000000001,11.548 C12.1400000000001,11.548 12.1389999999999,11.548 12.1389999999999,11.548 C12.0530000000001,11.546 12.0029999999999,11.619 12.0260000000001,11.701 C12.0260000000001,11.701 16.325,25.772 16.325,25.772 C16.348,25.854 16.325,25.997 16.175,25.997 C16.175,25.997 13.1590000000001,25.997 13.1590000000001,25.997 C13.0740000000001,25.997 13.011,26.067 13.011,26.152 C13.011,26.152 13.0119999999999,36.403 13.0119999999999,36.407 C13.0119999999999,37.4299999999999 12.182,38.26 11.1590000000001,38.26 C10.136,38.26 9.30600000000004,37.4299999999999 9.30600000000004,36.407 C9.30600000000004,36.407 9.30500000000006,26.152 9.30500000000006,26.152 C9.30500000000006,26.067 9.2360000000001,25.998 9.15100000000007,25.998 C9.15100000000007,25.998 9.14799999999991,25.998 9.14799999999991,25.998 C9.14799999999991,25.998 8.85200000000009,25.998 8.85200000000009,25.998 C8.85200000000009,25.998 8.84999999999991,25.998 8.84999999999991,25.998 C8.7639999999999,25.998 8.69499999999994,26.067 8.69499999999994,26.152 C8.69499999999994,26.152 8.69399999999996,36.407 8.69399999999996,36.407 C8.69399999999996,37.4299999999999 7.86500000000001,38.26 6.84099999999989,38.26 C5.81799999999998,38.26 4.98800000000006,37.4299999999999 4.98800000000006,36.407 C4.98800000000006,36.403 4.98900000000003,26.152 4.98900000000003,26.152 C4.98900000000003,26.067 4.92699999999991,25.997 4.84099999999989,25.997 C4.84099999999989,25.997 1.82500000000005,25.997 1.82500000000005,25.997 C1.67599999999993,25.997 1.65300000000002,25.854 1.67599999999993,25.772 C1.67599999999993,25.772 5.97399999999993,11.701 5.97399999999993,11.701 C5.99700000000007,11.619 5.94699999999989,11.546 5.86200000000008,11.548 C5.86200000000008,11.548 5.8610000000001,11.548 5.8610000000001,11.548 C5.8610000000001,11.548 5.57199999999989,11.548 5.55799999999999,11.548 C5.4079999999999,11.548 5.34400000000005,11.671 5.33200000000011,11.701 C5.33200000000011,11.701 3.18399999999997,18.703 3.18399999999997,18.703 C2.95000000000005,19.461 2.14699999999993,19.8869999999999 1.3889999999999,19.655 C0.63000000000011,19.422 0.20299999999997,18.6180000000001 0.43599999999992,17.859 C0.4369999999999,17.856 2.58200000000011,10.85 2.58899999999994,10.827 C2.91799999999989,9.68499999999995 3.7170000000001,7.08600000000001 5.97499999999991,7.08600000000001 C5.97499999999991,7.08600000000001 12.0329999999999,7.08600000000001 12.0329999999999,7.08600000000001 C14.4559999999999,7.08600000000001 15.0830000000001,9.68499999999995 15.4110000000001,10.827 C15.4110000000001,10.827 17.5640000000001,17.856 17.5640000000001,17.859 C17.797,18.6180000000001 17.3710000000001,19.422 16.6120000000001,19.655 ZM9,6.25699999999995 C7.47700000000009,6.25699999999995 6.24299999999994,5.02200000000005 6.24299999999994,3.49800000000005 C6.24299999999994,1.97500000000002 7.47700000000009,0.74000000000001 9,0.74000000000001 C10.5229999999999,0.74000000000001 11.758,1.97500000000002 11.758,3.49800000000005 C11.758,5.02200000000005 10.5229999999999,6.25699999999995 9,6.25699999999995 Z "/></svg>

<svg baseProfile="full" xmlns="http://www.w3.org/2000/svg" height="39" width="18"><path opacity=".2" fill="rgb( 0, 0, 0 )" d="M16.612 19.655c-.759.232-1.562-.194-1.795-.952-.001 0-2.148-7.002-2.148-7.002-.013-.03-.077-.153-.227-.153h-.303c-.086-.002-.136.071-.113.153l4.299 14.071c.023.082 0 .225-.15.225h-3.016c-.085 0-.148.07-.148.155l.001 10.255c0 1.023-.83 1.853-1.853 1.853-1.023 0-1.853-.83-1.853-1.853l-.001-10.255c0-.085-.069-.154-.154-.154h-.301c-.086 0-.155.069-.155.154l-.001 10.255c0 1.023-.829 1.853-1.853 1.853-1.023 0-1.853-.83-1.853-1.853l.001-10.255c0-.085-.062-.155-.148-.155h-3.016c-.149 0-.172-.143-.149-.225l4.298-14.071c.023-.082-.027-.155-.112-.153h-.304c-.15 0-.214.123-.226.153l-2.148 7.002c-.234.758-1.037 1.184-1.795.952-.759-.233-1.186-1.037-.953-1.796l2.153-7.032c.329-1.142 1.128-3.741 3.386-3.741h6.058c2.423 0 3.05 2.599 3.378 3.741 0 0 2.153 7.029 2.153 7.032.233.759-.193 1.563-.952 1.796zm-7.612-13.398c-1.523 0-2.757-1.235-2.757-2.759 0-1.523 1.234-2.758 2.757-2.758 1.523 0 2.758 1.235 2.758 2.758 0 1.524-1.235 2.759-2.758 2.759z"/></svg>
